!!!COM: Palestrina, Giovanni Perluigi da
!!!OPR: Missa Dies sanctificatus
!!!OMD: Credo
!!!OTL: Et in Spiritum
**kern	**kern	**kern	**kern
*Ibass	*Itenor	*Icalto	*Icant
!Bassus	!Tenor	!Altus	!Cantus
*clefF4	*clefGv2	*clefG2	*clefG2
*k[]	*k[]	*k[]	*k[]
*G:mix	*G:mix	*G:mix	*G:mix
*M4/2	*M4/2	*M4/2	*M4/2
=122	=122	=122	=122
1G	1d	1g	1b
2c	2e	2g	2cc
[2c	[2e	[2g	[2cc
=123	=123	=123	=123
4c]	4e]	4g]	4cc]
4c	4e	4g	4cc
2B	2d	2g	2dd
[1c	4c	4g	[1ee
.	4d	4f	.
.	4e	4e	.
.	4f	4d	.
=124	=124	=124	=124
2c]	2g	2c	2ee]
2B	2G	2d	2dd
2A	2.c	2e	2cc
2A	.	2f#	2cc
.	4c	.	.
=125	=125	=125	=125
1G	1d	1g	1b
2.A	1c	1e	2r
.	.	.	2cc
4G	.	.	.
=126	=126	=126	=126
4F	2f	2a	2cc
4G	.	.	.
4A	1f	1a	1cc
4B	.	.	.
1c	.	.	.
.	2e	2g	2ee
=127	=127	=127	=127
1r	2.f	1a	4dd
.	.	.	4cc
.	.	.	2.cc
.	4e	.	.
1G	1d	2.g	.
.	.	.	8b
.	.	.	8a
.	.	.	2b
.	.	4f	.
=128	=128	=128	=128
0c	2c	2e	2cc
.	1g	1cc	1ee
.	2g	2cc	2ee
=129	=129	=129	=129
1c	1g	1cc	1ee
1c	1e	1g	2cc
.	.	.	[2cc
=130	=130	=130	=130
1.G	1.d	1.g	2cc]
.	.	.	4b
.	.	.	4a
.	.	.	2b
2D	2d	2f	2a
=131	=131	=131	=131
2D	4d	1.f	2a
.	4e	.	.
4D	4f	.	2.a
4E	4g	.	.
4F	1a	.	.
4G	.	.	4b
4A	.	[2e	4cc
4B	.	.	4dd
=132	=132	=132	=132
2c	2g	2e]	2ee
2G	2g	2d	2b
1A	2e	1c	1cc
.	2f#	.	.
=133	=133	=133	=133
1G	1g	2d	2b
.	.	1g	1b
1r	2e	.	.
.	2a	2a	2cc
=134	=134	=134	=134
0r	1g	1b	1dd
.	2c	2cc	2ee
.	2d	2a	2dd
=135	=135	=135	=135
1r	2e	2.g	2b
.	2c	.	2cc
.	.	4g	.
2r	2d	2f#	2a
[2G	[2d	[2g	[2b
=136	=136	=136	=136
2G]	2d]	2g]	2b]
2G	2d	2g	2b
2E	2e	2g	2b
2D	2f#	2a	2dd
=137	=137	=137	=137
0G	0g	0b	0dd
=138	=138	=138	=138
1C	1g	1cc	1ee
2r	2r	2r	2r
2C	2e	2g	2cc
=139	=139	=139	=139
2C	2e	2g	2cc
2C	2e	2g	2cc
2G	2d	2g	2b
2E	[2c	2g	2cc
=140	=140	=140	=140
1D	2c]	2.f	1dd
.	2B	.	.
.	.	8e	.
.	.	8d	.
2C	1c	2g	2ee
[2c	.	2g	[2ee
=141	=141	=141	=141
2c]	2g	2c	2ee]
2B	2g	2d	2dd
2A	2c	2e	2cc
2A	2c	2f#	2a
=142	=142	=142	=142
2G	2d	2g	2b
2F	2f	2a	1cc
1G	2e	1g	.
.	[2d	.	2b
=143	=143	=143	=143
0A	2d]	1e	1a
.	4c#	.	.
.	4B	.	.
.	1c#	1e	2a
.	.	.	2ee
=144	=144	=144	=144
1D	2d	2r	1.ff
.	2d	2a	.
1r	2A	2cc	.
.	2c	2cc	2ee
=145	=145	=145	=145
0r	1G	1b	1dd
.	2A	2a	2cc
.	2G	2b	[2dd
=146	=146	=146	=146
0r	2d	4b	4dd]
.	.	4a	4cc
.	2f	1a	2a
.	2e	.	2.b
.	[2e	2g#	.
.	.	.	4b
=147	=147	=147	=147
1A	2e]	1a	1a
.	1f	.	.
[1c	.	2r	1r
.	4e	2g	.
.	4d	.	.
=148	=148	=148	=148
2c]	2e	2g	2r
2B	2d	2g	2b
2A	2c	2f	2cc
2A	2c	2e	2cc
=149	=149	=149	=149
2G	2d	2g	2b
2.A	2.c	2e	2a
.	.	4f	2a
4G	8B	4e	.
.	8A	.	.
2E	2B	[2e	2g#
=150	=150	=150	=150
2F	2A	2e]	2a
2F	2A	2d	2a
1E	1B	1e	1g#
=151	=151	=151	=151
2r	2r	2r	2r
2A	2c#	2e	2a
2A	2c#	2e	2a
2A	2c#	2f#	2a
=152	=152	=152	=152
2G	2d	2g	2b
2G	2d	2g	2b
2F	2f	2a	2cc
4F	2f	2a	4a
4G	.	.	4b
=153	=153	=153	=153
4A	1c	2a	4cc
4B	.	.	4dd
1c	.	2g	2ee
.	1G	2r	1dd
2B	.	[2g	.
=154	=154	=154	=154
1c	2r	2g]	1ee
.	1g	2g	.
1r	.	2.c	2r
.	2g	.	[2gg
.	.	4d	.
=155	=155	=155	=155
0r	2.c	2.e	2gg]
.	.	.	2gg
.	4d	4f	.
.	2e	2g	2cc
.	2f	2a	2dd
=156	=156	=156	=156
0r	2g	2b	1ee
.	2a	2cc	.
.	2f	2a	1dd
.	2g	2b	.
=157	=157	=157	=157
0r	1c	4a	2cc
.	.	4g	.
.	.	1g	2b
.	1d	.	1a
.	.	2f#	.
=158	=158	=158	=158
2r	2r	2g	2b
1c	1e	1g	1cc
2c	2e	2g	2cc
=159	=159	=159	=159
1F	1f	1a	1cc
1G	1d	1g	1b
=160	=160	=160	=160
2A	2c	2e	2r
2A	2e	2a	1cc
[1F	2.f	[1a	.
.	.	.	2cc
.	8e	.	.
.	8d	.	.
=161	=161	=161	=161
2F]	2c	2a]	2f
2E	2c	2g	2g
2F	2c	2f	2a
2D	2d	2f	2a
=162	=162	=162	=162
2F	2c	2f	2a
2C	2c	2e	2g
1D	2A	1a	1f
.	[2d	.	.
=163	=163	=163	=163
0A	2d]	0a	0e
.	4c#	.	.
.	4B	.	.
.	1c#	.	.
*-	*-	*-	*-
!!!CDT: 1525/^1526/-1594/2/2
!!!OCY: Italia
!!!AGN: Mass (Parody)
!!!AST: renaissance, vocal
!!!ASW: Motet 1563 (Palestrina)
!!!PWK: Masses, Book 6
!!!RNB: Cadence finals: D,A,C
!!!YOR: Le Opere Complete, v. 21, p. 1
!!!YOO: Rome, Italy: Fratelli Scalera
!!!END: 1992//
!!!EED: John Miller
!!!YEC: Copyright 2000, John Miller
!!!YEN: United States of America
!!!YEM: Rights to all derivative electronic formats reserved.
!!!YEM: Refer to licensing agreement for further details.
!!!YEM: This file must be accompanied by the licensing agreement.
!!!YEM: A copy of the licensing agreement may be found at http://www.music-cog.ohio-state.edu/HumdrumDatabases/Palestrina/license.txt
!!!EMD: converted to Humdrum by Bret Aarden
